!!!OTL: De Butzemennchen, S. 26
!!!id: L0019
**kern
*clefG2
*k[f#]
*G:
{16g
=1
16g
8g
8b
8dd
8b
=2
8b
8a
8a}
=3
{8a
=4
8g
8b
8dd
8b
=5
4b
4a}
=6
{8g
8b
8dd
8b
=7
8b
8a
8b}
16r
=8
{16a
=9
8g
8a
8b
8g
=10
4d
8g}
8r
=11
{8b
16dd
16dd
8dd
8r
=12
8b
8dd
4g}
=13
{8b
16dd
16dd
8dd
8dd
=14
8b
8dd
4g}
=15
{8f#
8a
8ee
8a
=16
4a
4g}
==
*-
!!!minrhy: 16
!!!meters: 2/4 ]  ZZ[7
!!!cut: De Butzemennchen, S. 26
!!!reg: Luxemburg
!!!trd: Die Luxemburger Volkslieder &auml;lterer Zeit, Luxemburg 1904 posth.
!!!rhy1:   X_X_X_X_  X_X_X_   (x2)
!!!rhy2: X_  X_X_X_X_  X__X__
!!!key: L0019  16  G 2/4 ]  ZZ[7
!!!mod: SECHSTONSKALA DUR ?]  AMBITUS[9
!!!kad: 2231111
!!!akz: 13_13_13_1-5_33_33_-72_
!!!fot: 'a__av_aw_b__c__cv_d__
!!!for: 'a__b__av_bv_c__c__bv_
!!!fok: '^a_^__^a_Vd_^d_^d_^a_
!! PHRAS[VORWIEGEND VOLLTAKTIG]
!!!fkt: Kinderlied, Tanzlied
!! FONTAINE, Ed.:
!! PR[48] 2K[4] 2G[16] 3K[4] 3G[0] 4A[4] 4Ü[0] 5A[0] 6K[0] 6G[0]
!! 7K[0] 7G[0] 8A[0] MEHR[0] SI[28] ABS[25] SR[20] SP[8]
!! ST[8] 2k[4] 2g[16] 3k[4] 3g[0] 4d[0] 4ü[0] 5d[0] 6k[0] 6g[0]
!! 7k[0] 7g[0] 8d[0] mehr[0] si[24] dm[+4] sr[20] sp[4]
!! 1F[86] 2F[14] 3F[0] 4F[0] LF[0] 2P[0] 3P[0] 4P[0] TRI[0] DF[2] AB[28]
!! TF[0] U3K[0] U3[0] U4[0] U4Ü[0] U5[4] U6K[0] U6[0] U7K[0] U7[0]
!! N1[8] N2K[0] N2[19] N3K[0] N3[15] N4[15] N4Ü[0] N5[23] N6K[0] N6[12]
!!!n7k: 0] N7[0] O1[4] O2K[0] O2[0] O3K[0] O3[0] HÖ[0
!!!RNB: symbol: &auml;      = a umlaut  (UTF-8: Å„)
